X:1
T:Brd g N Mhaille
M:3/4
C:Traditional
B:Folk Songs of Britain and Ireland
K:D
D3EFG|A2F2A2|B2AFEF|D2B,2Bc|
d2c2Bc|BAF3E|F2B3c|B4Bc|
d2c2Bc|BAF3G/22|B2AFEF|D2B,2B,C|
D2B2AB|F2E3F|E2D3D|D6||
W:
W: 'Bhrd g N Mhille. 's t d'fhg mo chro crite
W: T arraingeacha 'n bhis ag gabhil frd cheart-lr mo chro
W: T na mlte fear i ngr, le d'adan ciin nireach
W: Is go dtug t barr brecht' ar thr Oirghiall m's for
W:
W: Nl n ar bith is ille n'n ghealach os cionn a' tsile
W: N blth bn na n-irn bos a fs ar an droighean
W: O sid mar bos mo ghr-sa, 'na trills le brechta
W: Biln meala na pirte nach ndearn ariamh claon
W:
W: Is tuirseach 's is brnach a chaithims' an Domhnach
W: Mo hata 'n mo dhorn liom 's m ag osnal go trom
W: M 'g amharc ar na bithre a mbnn 's mo ghr' gabhil ann
W: 'Nois ag fear eile psta is mo h-och nach  'n fheall
W:
W: Nach mise 't thos leis a' phsadh se 'dhanamh
W: 'S nach gcodlam aon och' ach ag osnal go trom
W: O nr fhgaidh m 'n saol seo go rabh m 's mo chad-searc
W: Ar an aon leabaidh snte 's mo lmh faoi n-a cionn
W:
W: Is buachaill deas g m 't ag triall 'un mo phsta
W: 'S n buan i bhfad beo m mur' bhfaghaidh m mo mhian
W: A chuisle is a stirn, dan ridh 'gus b romham-sa
W: Cionn deireannach den Domhnach ar Bhithrn Droim Sliabh
